packages/core/src/svgs/opium.svg

<svg width="24" height="24" viewBox="0 0 24 24" fill="none" xmlns="http://www.w3.org/2000/svg">
<g clip-path="url(#clip0_31_15472)">
<path d="M0 0H24V24H0V0Z" fill="url(#paint0_linear_31_15472)"/>
<path fill-rule="evenodd" clip-rule="evenodd" d="M4.28564 12.0001C4.29422 10.1401 5.35707 6.42871 9.58279 6.42871C10.1142 6.45443 11.4042 6.70728 12.3085 7.50871C13.4442 8.50728 13.6199 8.58014 14.1985 8.58014C14.6614 8.58014 15.1971 8.37871 15.4071 8.28014C15.5999 8.19443 16.1142 8.023 16.6156 8.023C17.2456 8.023 19.7142 8.60585 19.7142 11.7644C19.7142 14.923 17.2842 15.5573 16.6928 15.5573C16.2112 15.5597 15.7343 15.4634 15.2914 15.2744C15.0342 15.163 14.6485 14.9959 14.1771 14.9959C13.7571 14.9959 12.9642 15.5744 12.6171 15.8616C12.1799 16.2901 10.9199 17.143 9.3985 17.143C7.49993 17.143 4.28564 15.7201 4.28564 12.0001ZM7.71422 12.0859C7.67564 11.1301 8.09564 9.21443 10.0842 9.21443H10.1014C10.2256 9.21443 10.8428 9.19728 11.6999 9.75014L11.7814 9.80157C12.6299 10.3501 13.0585 10.6244 14.0271 10.6244C14.8285 10.6244 15.4628 10.2944 15.6814 10.1316C15.9329 9.971 16.2197 9.87394 16.5171 9.84871C16.9028 9.84871 17.9999 10.2259 17.9999 11.7773C17.9999 13.3287 16.8599 13.753 16.5171 13.753C16.2428 13.753 15.8442 13.5559 15.6814 13.453C15.1819 13.1488 14.6117 12.9804 14.0271 12.9644C13.4505 12.9802 12.8885 13.1488 12.3985 13.453C12.0042 13.753 11.0099 14.3573 10.1699 14.3573C9.1285 14.3573 7.7185 13.303 7.7185 12.0859H7.71422Z" fill="url(#paint1_linear_31_15472)"/>
</g>
<defs>
<linearGradient id="paint0_linear_31_15472" x1="4.46571" y1="4.16143" x2="29.2071" y2="32.58" gradientUnits="userSpaceOnUse">
<stop stop-color="#1A1E21"/>
<stop offset="1" stop-color="#06060A"/>
</linearGradient>
<linearGradient id="paint1_linear_31_15472" x1="4.43564" y1="12.0901" x2="19.5128" y2="12.0901" gradientUnits="userSpaceOnUse">
<stop stop-color="#4FEF8F"/>
<stop offset="0.23" stop-color="#FFED03"/>
<stop offset="0.34" stop-color="#FD9D37"/>
<stop offset="0.46" stop-color="#F62A81"/>
<stop offset="0.59" stop-color="#9736B6"/>
<stop offset="0.7" stop-color="#6453C5"/>
<stop offset="0.83" stop-color="#1A7BD9"/>
</linearGradient>
<clipPath id="clip0_31_15472">
<rect width="24" height="24" fill="white"/>
</clipPath>
</defs>
</svg>

<svg xmlns="http://www.w3.org/2000/svg" width="24" height="24" fill="none" viewBox="0 0 24 24"><g clip-path="url(#a)"><path fill="url(#b)" d="M0 0h24v24H0z"/><path fill="url(#c)" fill-rule="evenodd" d="M4.286 12c.008-1.86 1.071-5.571 5.297-5.571.531.025 1.821.278 2.726 1.08 1.135.998 1.31 1.071 1.89 1.071.462 0 .998-.201 1.208-.3a3.4 3.4 0 0 1 1.209-.257c.63 0 3.098.583 3.098 3.741s-2.43 3.793-3.021 3.793a3.5 3.5 0 0 1-1.402-.283c-.257-.111-.643-.278-1.114-.278-.42 0-1.213.578-1.56.866-.437.428-1.697 1.281-3.219 1.281-1.898 0-5.112-1.423-5.112-5.143m3.428.086c-.038-.956.382-2.872 2.37-2.872h.017c.125 0 .742-.017 1.599.536l.081.052c.849.548 1.277.822 2.246.822.802 0 1.436-.33 1.654-.492.252-.161.539-.258.836-.283.386 0 1.483.377 1.483 1.928 0 1.552-1.14 1.976-1.483 1.976-.274 0-.673-.197-.836-.3a3.36 3.36 0 0 0-1.654-.489 3.26 3.26 0 0 0-1.628.489c-.395.3-1.39.904-2.23.904-1.04 0-2.45-1.054-2.45-2.271z" clip-rule="evenodd"/></g><defs><linearGradient id="b" x1="4.466" x2="29.207" y1="4.161" y2="32.58" gradientUnits="userSpaceOnUse"><stop stop-color="#1A1E21"/><stop offset="1" stop-color="#06060A"/></linearGradient><linearGradient id="c" x1="4.436" x2="19.513" y1="12.09" y2="12.09" gradientUnits="userSpaceOnUse"><stop stop-color="#4FEF8F"/><stop offset=".23" stop-color="#FFED03"/><stop offset=".34" stop-color="#FD9D37"/><stop offset=".46" stop-color="#F62A81"/><stop offset=".59" stop-color="#9736B6"/><stop offset=".7" stop-color="#6453C5"/><stop offset=".83" stop-color="#1A7BD9"/></linearGradient><clipPath id="a"><path fill="#fff" d="M0 0h24v24H0z"/></clipPath></defs></svg>
